X: 1
T: Rafferty's Mustache
M: 4/4
L: 1/8
R: reel
K: Dmaj
DEFD G2 AG|FDFA defa|~g3e f~d3|AB=cA EFGE|
DEFD G2 AG|FDFA defa|~g3e fddB|1 cAGE EDDE:|2 cAGE EDDA||
defd g2 ag|fdfa g2 ag|fdAF (3GAG FG|AB=cA d^cAB|
defd g2 ag|fdfa g2 ag|f~d3 AB=cA|EFGE EDDA:|
